packages/ui/assets/svg/fxs.svg

<svg class="icon-size" viewBox="0 0 31 31" fill="none" xmlns="http://www.w3.org/2000/svg">
<path class="fill" d="M15.4653 29.9306C23.4543 29.9306 29.9306 23.4543 29.9306 15.4653C29.9306 7.47633 23.4543 1 15.4653 1C7.47633 1 1 7.47633 1 15.4653C1 23.4543 7.47633 29.9306 15.4653 29.9306Z" fill="black" stroke="black" stroke-width="0.436504"/>
<path class="reverse-fill" d="M9.05432 7.22185L8.08451 8.19167L9.31151 9.41868L10.5412 10.6457L10.4394 10.9457C10.3081 11.3396 10.2545 11.6691 10.2545 12.1058C10.2545 13.5283 10.9993 14.7393 12.3174 15.4599C12.8479 15.7493 13.7587 16.0761 14.7687 16.336C16.7405 16.8423 17.0433 16.9307 17.4317 17.1129C17.9622 17.3647 18.2247 17.638 18.3346 18.0506C18.3828 18.2301 18.3801 18.6319 18.3319 18.8248C18.2086 19.2937 17.8095 19.7652 17.3138 20.0224C16.6441 20.3733 15.4787 20.4698 14.6 20.2447C14.2731 20.1644 13.8096 19.9366 13.5766 19.7464C13.1024 19.3553 12.7327 18.6802 12.5692 17.9006C12.5424 17.7773 12.521 17.6728 12.5183 17.6675C12.5103 17.6568 9.76695 17.9247 9.75355 17.9407C9.74283 17.9488 9.75087 18.0613 9.76963 18.1899C9.85536 18.8088 10.0724 19.5455 10.3215 20.0572L10.4662 20.3546L9.274 21.5467L8.0845 22.7389L9.057 23.7114L10.0268 24.6812L11.2565 23.4516L12.4835 22.2245L12.6952 22.313C13.815 22.7845 15.4948 22.9318 17.1236 22.6961C17.5148 22.6398 18.08 22.5058 18.3774 22.396L18.5542 22.3317L19.7303 23.5078L20.9038 24.6812L21.8736 23.7114L22.8461 22.7389L21.7557 21.6486L20.668 20.5609L20.8046 20.2822C21.0886 19.7116 21.2065 19.2267 21.2306 18.5596C21.2735 17.2871 20.944 16.328 20.1938 15.5376C19.4115 14.7152 18.5301 14.324 16.0413 13.6971C14.2865 13.2578 13.531 12.955 13.231 12.5746C12.9336 12.1995 12.9068 11.6744 13.1667 11.2913C13.3167 11.069 13.6864 10.8305 14.0883 10.6966C14.541 10.5439 15.3019 10.4742 15.8672 10.5332C17.0593 10.6591 17.6594 11.1681 17.922 12.2826C17.9541 12.4192 17.9836 12.5344 17.9863 12.5398C17.9916 12.5478 19.9313 12.4782 20.5126 12.4487L20.8448 12.4326L20.8261 12.1995C20.7886 11.7253 20.6948 11.3021 20.5233 10.86L20.4296 10.6109L21.6378 9.39992L22.8461 8.19167L21.8763 7.21918L20.9038 6.24936L19.6821 7.47101L18.4578 8.69533L18.1604 8.58281C17.429 8.30955 16.7218 8.18899 15.6796 8.15952C14.541 8.13005 13.5417 8.2774 12.7755 8.58817L12.4915 8.70337L11.2592 7.47636L10.0268 6.24936L9.05432 7.22185Z" fill="white"/>
</svg>

<svg class="icon-size" viewBox="0 0 31 31" fill="none" xmlns="http://www.w3.org/2000/svg"><path class="fill" d="M15.465 29.93c7.99 0 14.466-6.476 14.466-14.465S23.454 1 15.465 1C7.476 1 1 7.476 1 15.465c0 7.99 6.476 14.466 14.465 14.466Z" fill="#000" stroke="#000" stroke-width=".437"/><path class="reverse-fill" d="m9.054 7.222-.97.97 1.228 1.227 1.23 1.227-.103.3a3.397 3.397 0 0 0-.184 1.16c0 1.422.744 2.633 2.062 3.354.53.29 1.442.616 2.452.876 1.972.506 2.274.595 2.663.777.53.252.793.525.903.938.048.18.045.58-.003.774-.123.469-.523.94-1.018 1.197-.67.351-1.835.448-2.714.223a3.111 3.111 0 0 1-1.023-.499c-.475-.39-.844-1.066-1.008-1.845l-.05-.233c-.009-.011-2.752.257-2.765.273-.011.008-.003.12.016.249.085.619.302 1.355.552 1.867l.144.298-1.192 1.192-1.19 1.192.973.972.97.97 1.23-1.23 1.226-1.227.212.089c1.12.472 2.8.619 4.429.383.39-.056.956-.19 1.253-.3l.177-.064 1.176 1.176 1.174 1.173.97-.97.972-.972-1.09-1.09-1.088-1.088.137-.279c.284-.57.401-1.055.426-1.722.042-1.273-.287-2.232-1.037-3.022-.782-.823-1.664-1.214-4.153-1.84-1.755-.44-2.51-.743-2.81-1.123a1.092 1.092 0 0 1-.064-1.284c.15-.222.52-.46.921-.594.453-.153 1.214-.223 1.78-.164 1.191.126 1.791.635 2.054 1.75.032.136.062.251.064.257.006.008 1.945-.062 2.527-.091l.332-.016-.019-.233a4.589 4.589 0 0 0-.303-1.34l-.093-.25 1.208-1.21 1.208-1.208-.97-.973-.972-.97-1.222 1.222-1.224 1.224-.298-.112c-.731-.273-1.438-.394-2.48-.423-1.139-.03-2.138.117-2.905.428l-.284.115-1.232-1.227-1.232-1.227-.973.973Z" fill="#fff"/></svg>
